dist/img/icon/mail.svg

<svg width="16" height="16" viewBox="0 0 16 16" fill="none" xmlns="http://www.w3.org/2000/svg">
<g clip-path="url(#clip0_67_12904)">
<path d="M13.3333 2.6665H2.66659C1.93325 2.6665 1.33992 3.2665 1.33992 3.99984L1.33325 11.9998C1.33325 12.7332 1.93325 13.3332 2.66659 13.3332H13.3333C14.0666 13.3332 14.6666 12.7332 14.6666 11.9998V3.99984C14.6666 3.2665 14.0666 2.6665 13.3333 2.6665ZM13.3333 5.33317L7.99992 8.6665L2.66659 5.33317V3.99984L7.99992 7.33317L13.3333 3.99984V5.33317Z" fill="#AAAEB3"/>
</g>
<defs>
<clipPath id="clip0_67_12904">
<rect width="16" height="16" fill="white"/>
</clipPath>
</defs>
</svg>

<svg width="16" height="16" viewBox="0 0 16 16" fill="none" xmlns="http://www.w3.org/2000/svg"><g clip-path="url(#clip0_67_12904)"><path d="M13.333 2.667H2.667c-.734 0-1.327.6-1.327 1.333l-.007 8c0 .733.6 1.333 1.334 1.333h10.666c.734 0 1.334-.6 1.334-1.333V4c0-.733-.6-1.333-1.334-1.333zm0 2.666L8 8.666 2.667 5.333V4L8 7.333 13.333 4v1.333z" fill="#AAAEB3"/></g><defs><clipPath id="clip0_67_12904"><rect width="16" height="16" fill="#fff"/></clipPath></defs></svg>
